assets/icons/increase.svg

<svg width="25" height="25" viewBox="0 0 25 25" fill="none" xmlns="http://www.w3.org/2000/svg">
<g id="increase">
<path id="iconDefault" fill-rule="evenodd" clip-rule="evenodd" d="M3.72475 21.4836C3.96882 21.7276 4.36455 21.7276 4.60863 21.4836L12.5 13.5922L20.3914 21.4836C20.6355 21.7276 21.0312 21.7276 21.2753 21.4836C21.5194 21.2395 21.5194 20.8438 21.2753 20.5997L12.942 12.2664C12.6979 12.0223 12.3022 12.0223 12.0581 12.2664L3.72475 20.5997C3.48067 20.8438 3.48067 21.2395 3.72475 21.4836ZM3.72475 13.1502C3.96882 13.3943 4.36455 13.3943 4.60863 13.1502L12.5 5.25884L20.3914 13.1502C20.6355 13.3943 21.0312 13.3943 21.2753 13.1502C21.5194 12.9062 21.5194 12.5104 21.2753 12.2664L12.942 3.93302C12.6979 3.68894 12.3022 3.68894 12.0581 3.93302L3.72475 12.2664C3.48067 12.5104 3.48067 12.9062 3.72475 13.1502Z" fill="#18303F"/>
</g>
</svg>

<svg width="25" height="25" viewBox="0 0 25 25" fill="none"><g id="increase"><path id="iconDefault" fill-rule="evenodd" clip-rule="evenodd" d="M3.725 21.484c.244.244.64.244.884 0l7.891-7.892 7.891 7.892a.625.625 0 0 0 .884-.884l-8.333-8.334a.625.625 0 0 0-.884 0L3.725 20.6a.625.625 0 0 0 0 .884Zm0-8.334c.244.244.64.244.884 0L12.5 5.26l7.891 7.891a.625.625 0 0 0 .884-.884l-8.333-8.333a.625.625 0 0 0-.884 0l-8.333 8.333a.625.625 0 0 0 0 .884Z" fill="#18303F"/></g></svg>
